X: 12045
T: Erin, The Tear And The Smile
R: waltz
M: 3/4
K: Gmajor
D2E2F2|G3AB2|D2E2F2|G6:|
|:B2B2B2|c3E E2|B2B2A2|G3ED2|
d2 cBA2|G3A!fermata!B2|D2E2F2|G6||

